X:2041
T:Braes of Lochiel, The
T:Braigh Loch Iall
S:Alasdair Fraser record
R:Slow air
O:Scotland
M:6/8
B:CM
K:Hp
e|\
A>GB A2A|a>ge d<eg|G<BA G2B|d>eg edB|\
B<AG A2A|a>ge d<eg|
B<GB d>eg|B2A A2::\
g|\
a>Aa a2e|a>ge d<eg|
G<BA G2B|d>eg e<dB|\
B<AG A2A|aa/g/e d<eg|B<GB d>eg|B2AA2:|


